X: 16
T:Down The Road
% Nottingham Music Database
S:via PR
M:4/4
L:1/4
K:G
"G"GG G/2A/2B/2G/2|AG G/2A/2B/2c/2|"G"dB/2c/2 dg|"C"ee "G"d2|"C"ee "G"d2|
"C"ee "G"d2|"C"ee "G"d/2B/2G/2A/2|"A7"BA "D7"A/2c/2B/2A/2|"G"GG G/2A/2B/2G/2|\
AG G/2A/2B/2c/2|
"G"dB/2c/2 dg|"C"ee "G"d2|"C"ee "G"d2|"Em"ee "Bm"d2|"Am"GG "D7"F/2G/2A/2F/2|\
"G"G3B/2A/2||
"G"G3/2E/2 DE|GG G/2A/2B/2A/2|"G"GG G/2A/2B/2A/2|"D7"A3/2F/2 D2|
"D7"A3/2F/2 DD|"D7"AA A/2B/2c/2B/2|AA A/2B/2c/2A/2|"G"dB GA||
"G"B3/2c/2 dd|"C"cB "Am"AG|"D7"FD cA|"D7"F3D|"C"E2 "G"D2|"Em"E2 "Bm"D2|\
"Am"GG "D7"F/2G/2A/2F/2|"G"G4||


